!!!!SEGMENT: pl-kk--kk-i-386--002-006_anonim--missa-seconda-sanctus.krn
!!!cenid: 18xx:4513
!!!COM: Anonim
!!!COM-rismID: pe30004985
!!!CDT:
!!!CNT:
!!!OPR: Missa seconda
!!!OTL: Sanctus
!!!OMV: 006
!!!PDT:
!!!AGN: Sacred
!!!YEC: Copyright 2022 Narodowy Instytut Fryderyka Chopina (https://polishscores.org)
!!!YEM: License CC-BY-4.0 (https://creativecommons.org/licenses/by/4.0)
!!!SMS-siglum: PL-Kk
!!!SMS-shelfmark: Kk.I.386
!!!SMS-variant:
!!!SMS-altvar:
!!!SMS-shelfwork: 002-006 M
!!!NIFC-rismSourceID: 1001218240
!!!NIFC-rismChildID: 1001218243
!!!NIFC-islandoraID: pl-kk:16060
!!!URL-pdf-islandora: https://repozytorium.nifc.pl/islandora/object/pl-kk%3A16060/datastream/PDF/view
!!!URL-scan: https://polish.musicsources.pl/pl/lokalizacje/galeria/rekopisy/7134/3 @EN{Scan on Polish Music Sources Website} @PL{Skany w portalu Dziedzictwo Muzyki Polskiej w otwartym dostępie}
!!!IIIF:
!!!ONB-nifc: UWAGA: Części Missy Seconda: Rorate, Kyrie, Gloria, Graduale, Offertorium, Sanctus, Benedicuts, Agnus. Zakres skanów: S – 6-9, A – 15-19, T – 25-29, B – 35-39
!!!AIN: 1 alto 1 bass 1 soprn 1 tenor
!!!key:
**kern	**text	**kern	**text	**kern	**text	**kern	**text
*part4	*part4	*part3	*part3	*part2	*part2	*part1	*part1
*staff4	*staff4	*staff3	*staff3	*staff2	*staff2	*staff1	*staff1
*I"Basso.	*	*I"Tenore.	*	*I"Alto.	*	*I"Soprano.	*
*I'B	*	*I'T	*	*I'A	*	*I'S	*
*Ibass	*	*Itenor	*	*Ialto	*	*Isoprn	*
*ICvox	*	*ICvox	*	*ICvox	*	*ICvox	*
*clefF4	*	*clefC4	*	*clefC3	*	*clefC1	*
*k[]	*	*k[]	*	*k[]	*	*k[]	*
*C:	*	*C:	*	*C:	*	*C:	*
*M4/4	*	*M4/4	*	*M4/4	*	*M4/4	*
*met(c)	*	*met(c)	*	*met(c)	*	*met(c)	*
=1	=1	=1	=1	=1	=1	=1	=1
!	!	!	!	!LO:TX:b:t=Moderato.	!	!LO:TX:t=P:problem:all\right:global	!
!LO:TX:a:t=in C.	!	!	!	!LO:TX:a:t=in C.	!	!LO:TX:a:t=in c.	!
*2\right	*	*	*	*2\right	*	*2\right	*
2C/	San-	2G/	San-	2e\	San-	2cc\	San-
2FF/	-ctus	2G/	-ctus	2f\	-ctus	2dd\	-ctus
=2	=2	=2	=2	=2	=2	=2	=2
2.GG/	san-	2E/	san-	2.g\	san-	2cc\	san-
.	.	4D/	.	.	.	4b\	.
4AA/	.	4F#X/	.	4f\	.	4a\	.
=3	=3	=3	=3	=3	=3	=3	=3
4BB/	.	4G/	.	2d\	.	4g\	.
4GG/	.	4B\	.	.	.	2gg\	.
4AA/	.	4c\	.	2g\	.	.	.
4BB/	.	4d\	.	.	.	4ff\	.
=4	=4	=4	=4	=4	=4	=4	=4
4C/	-ctus	4c\	-ctus	4g\	-ctus	4ee\	-ctus
*	*	*2\right	*	*	*	*	*
4G\	san-	2c\	san-	2g\	San-	4g\	san-
4E\	.	.	.	.	.	4cc\	.
!	!	!	!	!	!	!LO:LB:g=original	!
4C/	.	4c\	-ctus	4g\	-ctus	4ee\	.
=5	=5	=5	=5	=5	=5	=5	=5
2D\	-ctus	2B\	san-	2g\	san-	2dd\	.
!LO:LB:g=original	!	!LO:LB:g=original	!	!	!	!	!
2D\	San-	2c\	.	2d\	.	2ff#X\	.
=6	=6	=6	=6	=6	=6	=6	=6
2GG/	-ctus	2B\	-ctus	2d\	-ctus,	2gg\	-ctus
!	!	!	!	!LO:LB:g=original	!	!	!
4r	.	4r	.	4r	.	4r	.
4G\	san-	4G/	san-	4g\	san-	4g\	San-
=7	=7	=7	=7	=7	=7	=7	=7
2C/	.	2G/	.	2e\	.	2cc\	.
2FF/	.	2G/	-ctus	2f\	.	2dd\	-ctus
=8	=8	=8	=8	=8	=8	=8	=8
2.GG/	.	2E/	San-	2e\	.	2cc\	san-
.	.	4D/	.	2d\	.	4b\	.
4AA/	.	4F#X/	.	.	.	4a\	.
=9	=9	=9	=9	=9	=9	=9	=9
4BB/	-ctus	4G\	-ctus	2d\	-ctus	4g\	-ctus
4GG/	san-	4B\	san-	.	.	2gg\	san-
4AA/	.	4c\	.	2g\	san-	.	.
4BB/	.	4d\	.	.	.	4ff\	.
=10	=10	=10	=10	=10	=10	=10	=10
4C\	.	4c\	-ctus	2c\	.	4ee\	.
4G\	.	2c\	san-	.	.	4g\	.
4E\	.	.	.	2g\	.	4cc\	.
4C/	.	4c\	-ctus	.	.	4ee\	-ctus
!	!	!	!	!	!	!LO:LB:g=original	!
=11	=11	=11	=11	=11	=11	=11	=11
2D\	.	2B\	san-	4g\	-ctus	2dd\	san-
.	.	.	.	4g\	san-	.	.
2ryy	.	2c\	.	(4e\	.	2ff#X\	.
.	.	.	.	4g\)	.	.	.
!	!	!LO:LB:g=original	!	!	!	!	!
=12	=12	=12	=12	=12	=12	=12	=12
2GG/	-ctus	2B\	-ctus	2d\	-ctus	2gg\	-ctus
!LO:LB:g=original	!	!	!	!	!	!	!
4r	.	2r	.	2r	.	2r	.
4G\	Do-	.	.	.	.	.	.
=13	=13	=13	=13	=13	=13	=13	=13
2F\	-mi-	2B\	Do-	2g\	Do-	2dd\	Do-
!	!	!	!	!LO:LB:g=original	!	!	!
2E\	-nus	4.c#X\	-mi-	4.g\	-mi-	4.ee\	-mi-
.	.	8c#\	-nus	8a\	-nus	8ee\	-nus
=14	=14	=14	=14	=14	=14	=14	=14
2D\	De-	2d\	De-	2a\	De-	(2ff\	De-
2G\	-us,	4B\	.	2g\	-us	4dd\)	.
.	.	4B\	-us	.	.	4dd\	-us
=15	=15	=15	=15	=15	=15	=15	=15
4C/	Sa-	4c\	sa-	2.g\	sa-	4ee\	sa-
4G\	.	2G/	.	.	.	4g\	.
4E\	.	.	.	.	.	4cc\	.
4C/	-ba-	4c\	-ba-	4g\	-ba-	4ee\	-ba-
=16	=16	=16	=16	=16	=16	=16	=16
4GG/	-ot	4B\	-ot	4g\	-ot	4dd\	-ot,
4G\	sa-	2G/	sa-	2g\	sa-	4g\	sa-
4E\	.	.	.	.	.	4cc\	.
4C/	-ba-	4c\	-ba-	4g\	-ba-	4ee\	-ba-
!	!	!	!	!	!	!LO:PB:g=original	!
=17	=17	=17	=17	=17	=17	=17	=17
4GG/	-ot	4B\	-ot	4g\	-ot,	4dd\	-ot,
4GG/	ple-	4B\	ple-	4g\	ple-	4r	.
4GG/	-ni	4B\	-ni	4g\	-ni	2r	.
4GG/	sunt	4B\	sunt	4g\	sunt	.	.
!	!	!LO:LB:g=original	!	!	!	!	!
=18	=18	=18	=18	=18	=18	=18	=18
4C/	ce-	4r	.	4e\	ce-	4r	.
8C/	-li	4G/	ce-	8e\	-li	4cc\	glo-
8C/	et	.	.	8e\	et	.	.
!LO:LB:g=original	!	!	!	!	!	!	!
4C/	ter-	4G/	-li	4e\	ter-	4cc\	-ri-
4C/	-ra	4G/	et	4e\	-ra	4cc\	-a
!	!	!	!	!LO:PB:g=original	!	!	!
=19	=19	=19	=19	=19	=19	=19	=19
4D\	glo-	1F#X	ter-	4d\	glo-	1cc	tu-
8D\	-ri-	.	.	8d\	-ri-	.	.
8D\	-a	.	.	8d\	-a	.	.
2D\	tu-	.	.	2d\	tu-	.	.
=20	=20	=20	=20	=20	=20	=20	=20
*^	*	*	*	*	*	*	*
*	*cue	*	*	*	*	*	*	*
2GG/	2ryy	-a,	2G;/	-ra.	2d;\	-a.	2b;\	-a.
!LO:TX:a:t=Sopran	!	!	!	!	!	!	!	!
4r	8r	.	2r	.	2r	.	8r	.
.	8D/	.	.	.	.	.	8g\	ple-
4r	8E/	.	.	.	.	.	8a\	-ni
.	8F/	.	.	.	.	.	8b\	sunt
*	*Xcue	*	*	*	*	*	*	*
*v	*v	*	*	*	*	*	*	*
=21	=21	=21	=21	=21	=21	=21	=21
8r	.	8r	.	8r	.	4.cc\	ce-
8C\	ple-	8E/	ple-	8e\	ple-	.	.
8D\	-ni	8F/	-ni	8f\	-ni	.	.
8E\	sunt	8G/	sunt	8g\	sunt	8b\	.
4.F\	ce-	4.A/	ce-	4.a\	ce-	4a\	-li
.	.	.	.	.	.	8b\L	et
8E\	.	8G/	.	8g\	.	8cc\J	.
!	!	!	!	!	!	!LO:LB:g=original	!
=22	=22	=22	=22	=22	=22	=22	=22
4D\	-li	4F/	-li	4f\	-li,	4.dd\	ter-
8E\	et	8G/	et	8g\L	et	.	.
8F\	.	8A/	.	8a\J	.	8cc\	.
!LO:LB:g=original	!	!	!	!	!	!	!
4.G\	ter-	4.B/	ter-	4.b\	ter-	4b\	-ra
.	.	.	.	.	.	8cc\L	et
8F\	.	8A/	.	8a\	.	8dd\J	.
=23	=23	=23	=23	=23	=23	=23	=23
4E\	-ra	4G/	-ra	4g\	-ra	4.ee\	ce-
8F\L	.	8A/L	et	8a\L	et	.	.
8G\J	.	8B/J	.	8b\J	.	8dd\	.
!	!	!LO:LB:g=original	!	!	!	!	!
4.A\	ple-	4.c\	ter-	4.cc\	ter-	4cc\	-li
.	.	.	.	.	.	8dd\L	et
8G\	-ni	8B\	.	8b\	.	8ee\J	.
!	!	!	!	!LO:LB:g=original	!	!	!
=24	=24	=24	=24	=24	=24	=24	=24
4F\	sunt	4A\	-ra	4a\	-ra	2.ff\	ter-
8G\L	.	8B\L	et	8b\L	et	.	.
8A\J	.	8c\J	.	8cc\J	.	.	.
4B\	ce-	4d\	ter-	4dd\	ter-	.	.
4G\	-li	4B\	-ra	4b\	-ra	4ff\	-ra
=25	=25	=25	=25	=25	=25	=25	=25
2c\	ter-	2d\	glo-	2b\	glo-	2ee\	glo-
2A\	-ra	2c\	.	2a\	.	2ee\	-ria
=26	=26	=26	=26	=26	=26	=26	=26
2F\	glo-	2c\	.	4a\	.	2dd\	glo-
.	.	.	.	4a\	-ri-	.	.
4G\	-ri-	4B\	-ri-	2g\	-a	4dd\	-ri-
4G\	-a	4B\	-a	.	.	4dd\	-a
!	!	!	!	!	!	!LO:LB:g=original	!
=27	=27	=27	=27	=27	=27	=27	=27
4C/	tu-	4c\	tu-	4cc\	tu-	4cc\	tu-
2A\	-a	2c\	-a	2a\	-a.	2ee\	-a
4r;	.	4r;	.	4r;	.	4r;	.
!LO:LB:g=original	!	!	!	!	!	!	!
=28	=28	=28	=28	=28	=28	=28	=28
4F\	glo-	4.c\	glo-	4.a\	glo-	4.dd\	glo-
8F\	-ri-	.	.	.	.	.	.
8F\	-a	8c\	-ria	8a\	-ri-	8dd\	-ria
4G\	tu-	2B\	tu-	4g\	-a	2gg\	tu-
4GG/	.	.	.	4f\	tu-	.	.
!	!	!LO:LB:g=original	!	!	!	!	!
=29	=29	=29	=29	=29	=29	=29	=29
*^	*	*	*	*	*	*	*
2C/	2ryy	-a	2c\	-a,	2e\	-a	2cc\	-a
*	*cue	*	*	*	*	*	*	*
4r	8r	.	2r	.	2r	.	8r	.
.	8D/	.	.	.	.	.	8g\	o-
4r	8E/	.	.	.	.	.	8a\	-san-
.	8F/	.	.	.	.	.	8b\	-na
*	*Xcue	*	*	*	*	*	*	*
*v	*v	*	*	*	*	*	*	*
!	!	!	!	!	!LO:LB:g=original	!	!
=30	=30	=30	=30	=30	=30	=30	=30
8r	.	8r	.	8r	.	4.cc\	o-
8C\L	O-	8E/	O-	8e\	o-	.	.
8D\	.	8F/	-san-	8f\	-san-	.	.
8E\J	.	8G/	-na	8g\	-na	8b\	.
4.F\	-san-	4.A/	in	4.a\	in	4a\	-san-
.	.	.	.	.	.	8b\L	-na
8E\	-na	8G/	ex-	8g\	ex-	8cc\J	.
=31	=31	=31	=31	=31	=31	=31	=31
4D\	in	4F/	-cel-	4f\	-cel-	4.dd\	o-
8E\L	ex-	8G/L	.	8g\L	.	.	.
8F\J	.	8A/J	.	8a\J	.	8cc\	.
!	!	!	!	!	!	!LO:LB:g=original	!
4.G\	-cel-	4.B\	.	4.b\	.	4b\	-san-
.	.	.	.	.	.	8cc\L	-na
8F\	-sis	8A\	-sis	8a\	-sis,	8dd\J	.
=32	=32	=32	=32	=32	=32	=32	=32
4E\	O-	4G/	O-	4g\	o-	4.ee\	O-
8F\L	.	8A/L	.	8a\L	.	.	.
8G\J	.	8B/J	.	8b\J	.	8dd\	.
!LO:PB:g=original	!	!	!	!	!	!	!
4.A\	-san-	4.c\	-san-	4.cc\	-san-	4cc\	-san-
.	.	.	.	.	.	8dd\L	-na
8G\	-na	8B\	-na	8b\	-na	8ee\J	.
=33	=33	=33	=33	=33	=33	=33	=33
4F\	in	4A\	in	4a\	in	2.ff\	in
8G\L	ex-	8B\L	.	8b\L	.	.	.
8A\J	.	8c\J	.	8cc\J	.	.	.
!	!	!LO:PB:g=original	!	!	!	!	!
4B\	-cel-	4d\	.	4dd\	.	.	.
4G\	-sis	4B\	ex-	4cc\	ex-	4ff\	ex-
=34	=34	=34	=34	=34	=34	=34	=34
!	!	!	!	!LO:TX:t=P:problem:takt dopisany ołówkiem	!	!	!
2c\	O-	2d\	-cel-	2b\	-cel-	2ee\	-cel sis
2A\	.	2c\	-sis	2a\	.	2ee\	ex-
!	!	!	!	!LO:LB:g=original	!	!	!
=35	=35	=35	=35	=35	=35	=35	=35
2F\	-san-	2c\	O-	4a\	-cel-	2dd\	-cel-
.	.	.	.	4a\	-sis	.	.
4G\	-na	4B\	-san-	2g\	o-	4dd\	-sis
4G\	O-	4B\	-na o-	.	.	4dd\	O-
=36	=36	=36	=36	=36	=36	=36	=36
4C/	-san-	4c\	-san-	4cc\	-san-	4cc\	-san-
2A\	-na	2c\	-na	2a\	-na	2ee\	-na
4r;	.	4r;	.	4r;	.	4r;	.
!	!	!	!	!	!	!LO:LB:g=original	!
=37	=37	=37	=37	=37	=37	=37	=37
4.F\	in	4.c\	in	4.a\	in	4.dd\	in
8F\	ex-	8c\	ex-	8a\	ex-	8dd\	ex-
4G\	-cel-	2B\	-cel-	4g\	-cel-	2gg\	-cel-
4GG/	.	.	.	4f\	.	.	.
=38	=38	=38	=38	=38	=38	=38	=38
2C/	-sis.	2c\	-sis.	2e\	-sis.	2cc\	-sis.
2r	.	2r	.	2r	.	2r	.
==	==	==	==	==	==	==	==
*-	*-	*-	*-	*-	*-	*-	*-
!!!system-decoration: [(s1,s2,s3,s4)]
!!!RDF**kern: > = above
!!!RDF**kern: < = below
!!!ENC: Andrzej Gręziak
!!!END: 2023-11-02
!!!ENC: Leszek Kubiak
!!!END: 2024-06-27
